X:2518
T:Buttered Peas
C:anon.
O:England
Z:C.G.P
F:http://abc.musicaviva.com/tunes/england/buttered-peas/buttered-peas-1.abc
%Posted at abcusers Jan 2nd 2001 by Johnny Adams.
M:4/4
L:1/4
Q:120
K:G
|:A|BDBG/B/|cDc>A|FDF/G/A/B/|dDd>c|BDBA/B/|cde2|dgfe/f/|ggg:|
|:z|dgg/f/e/d/|ccc>B|Aaa/g/f/e/|ddde/f/|gg/g/gB|cde2|dgfe/f/|ggg:|
W:
W:
W:  From Musica Viva - http://www.musicaviva.com
W:  the Internet center for free sheet music downloads.
